release-package/HDRTray/profiles/xiaomi_miniled_1d.cal
CAL

ORIGINATOR "vcgt"
DEVICE_CLASS "DISPLAY"
COLOR_REP "RGB"

NUMBER_OF_FIELDS 4
BEGIN_DATA_FORMAT
RGB_I RGB_R RGB_G RGB_B
END_DATA_FORMAT

NUMBER_OF_SETS 1024
BEGIN_DATA
0.00000000000000 0.000000730956000 0.000000730956000 0.000000730956000
0.00097751710655 0.000060807182137 0.000060807182137 0.000060807182137
0.00195503421310 0.000194968257734 0.000194968257734 0.000194968257734
0.00293255131965 0.000387673825245 0.000387673825245 0.000387673825245
0.00391006842620 0.000633634525471 0.000633634525471 0.000633634525471
0.00488758553275 0.000929842680842 0.000929842680842 0.000929842680842
0.00586510263930 0.001274380667802 0.001274380667802 0.001274380667802
0.00684261974585 0.001666144753014 0.001666144753014 0.001666144753014
0.00782013685239 0.002104870083064 0.002104870083064 0.002104870083064
0.00879765395894 0.002591305891995 0.002591305891995 0.002591305891995
0.00977517106549 0.003127492654001 0.003127492654001 0.003127492654001
0.01075268817204 0.003717124812114 0.003717124812114 0.003717124812114
0.01173020527859 0.004365994966045 0.004365994966045 0.004365994966045
0.01270772238514 0.005082520936984 0.005082520936984 0.005082520936984
0.01368523949169 0.005878360017315 0.005878360017315 0.005878360017315
0.01466275659824 0.006769116452437 0.006769116452437 0.006769116452437
0.01564027370479 0.007775149403926 0.007775149403926 0.007775149403926
0.01661779081134 0.008922489583817 0.008922489583817 0.008922489583817
0.01759530791789 0.010265031647310 0.010265031647310 0.010265031647310
0.01857282502444 0.011856100816489 0.011856100816489 0.011856100816489
0.01955034213099 0.013647753794871 0.013647753794871 0.013647753794871
0.02052785923754 0.015561757323053 0.015561757323053 0.015561757323053
0.02150537634409 0.017487818057290 0.017487818057290 0.017487818057290
0.02248289345064 0.019391716855867 0.019391716855867 0.019391716855867
0.02346041055718 0.021440192194531 0.021440192194531 0.021440192194531
0.02443792766373 0.023597753086459 0.023597753086459 0.023597753086459
0.02541544477028 0.025803007311245 0.025803007311245 0.025803007311245
0.02639296187683 0.027976067004687 0.027976067004687 0.027976067004687
0.02737047898338 0.030015773272467 0.030015773272467 0.030015773272467
0.02834799608993 0.031796645010533 0.031796645010533 0.031796645010533
0.02932551319648 0.033250594879155 0.033250594879155 0.033250594879155
0.03030303030303 0.034527125221498 0.034527125221498 0.034527125221498
0.03128054740958 0.035637356284202 0.035637356284202 0.035637356284202
0.03225806451613 0.036585166097036 0.036585166097036 0.036585166097036
0.03323558162268 0.037379876769155 0.037379876769155 0.037379876769155
0.03421309872923 0.038037101195116 0.038037101195116 0.038037101195116
0.03519061583578 0.038579668902956 0.038579668902956 0.038579668902956
0.03616813294233 0.039038636405929 0.039038636405929 0.039038636405929
0.03714565004888 0.039454387710209 0.039454387710209 0.039454387710209
0.03812316715543 0.039877830934353 0.039877830934353 0.039877830934353
0.03910068426197 0.040371697312965 0.040371697312965 0.040371697312965
0.04007820136852 0.041011949187478 0.041011949187478 0.041011949187478
0.04105571847507 0.041775701114566 0.041775701114566 0.041775701114566
0.04203323558162 0.042431039119677 0.042431039119677 0.042431039119677
0.04301075268817 0.042989985083320 0.042989985083320 0.042989985083320
0.04398826979472 0.043485498283510 0.043485498283510 0.043485498283510
0.04496578690127 0.043958425116557 0.043958425116557 0.043958425116557
0.04594330400782 0.044458387525928 0.044458387525928 0.044458387525928
0.04692082111437 0.045044740445066 0.045044740445066 0.045044740445066
0.04789833822092 0.045787602400180 0.045787602400180 0.045787602400180
0.04887585532747 0.046768963624309 0.046768963624309 0.046768963624309
0.04985337243402 0.048083876247774 0.048083876247774 0.048083876247774
0.05083088954057 0.049841731353089 0.049841731353089 0.049841731353089
0.05180840664712 0.052583926085590 0.052583926085590 0.052583926085590
0.05278592375367 0.056508513366194 0.056508513366194 0.056508513366194
0.05376344086022 0.059779912515910 0.059779912515910 0.059779912515910
0.05474095796676 0.062122244038742 0.062122244038742 0.062122244038742
0.05571847507331 0.064077877430871 0.064077877430871 0.064077877430871
0.05669599217986 0.065733613393847 0.065733613393847 0.065733613393847
0.05767350928641 0.067194384078712 0.067194384078712 0.067194384078712
0.05865102639296 0.068583298177200 0.068583298177200 0.068583298177200
0.05962854349951 0.069825416665718 0.069825416665718 0.069825416665718
0.06060606060606 0.070832542920949 0.070832542920949 0.070832542920949
0.06158357771261 0.071636701444455 0.071636701444455 0.071636701444455
0.06256109481916 0.072276979317235 0.072276979317235 0.072276979317235
0.06353861192571 0.072800202655127 0.072800202655127 0.072800202655127
0.06451612903226 0.073261658487535 0.073261658487535 0.073261658487535
0.06549364613881 0.073725864485779 0.073725864485779 0.073725864485779
0.06647116324536 0.074267389076904 0.074267389076904 0.074267389076904
0.06744868035191 0.074971724592691 0.074971724592691 0.074971724592691
0.06842619745846 0.075936216222004 0.075936216222004 0.075936216222004
0.06940371456500 0.077271049657655 0.077271049657655 0.077271049657655
0.07038123167155 0.079100300456806 0.079100300456806 0.079100300456806
0.07135874877810 0.081563048266822 0.081563048266822 0.081563048266822
0.07233626588465 0.086052885213115 0.086052885213115 0.086052885213115
0.07331378299120 0.091114100272461 0.091114100272461 0.091114100272461
0.07429130009775 0.093091556981860 0.093091556981860 0.093091556981860
0.07526881720430 0.094686842257836 0.094686842257836 0.094686842257836
0.07624633431085 0.095950116807163 0.095950116807163 0.095950116807163
0.07722385141740 0.096919830110910 0.096919830110910 0.096919830110910
0.07820136852395 0.097641701596317 0.097641701596317 0.097641701596317
0.07917888563050 0.098169336221984 0.098169336221984 0.098169336221984
0.08015640273705 0.098564877421932 0.098564877421932 0.098564877421932
0.08113391984360 0.098899699248797 0.098899699248797 0.098899699248797
0.08211143695015 0.099255139634386 0.099255139634386 0.099255139634386
0.08308895405670 0.099723276766750 0.099723276766750 0.099723276766750
0.08406647116325 0.100407748833355 0.100407748833355 0.100407748833355
0.08504398826979 0.101370228315952 0.101370228315952 0.101370228315952
0.08602150537634 0.102569689099883 0.102569689099883 0.102569689099883
0.08699902248289 0.103958666550162 0.103958666550162 0.103958666550162
0.08797653958944 0.105482702383749 0.105482702383749 0.105482702383749
0.08895405669599 0.107079808074069 0.107079808074069 0.107079808074069
0.08993157380254 0.108679897727012 0.108679897727012 0.108679897727012
0.09090909090909 0.110226637487570 0.110226637487570 0.110226637487570
0.09188660801564 0.111839376848000 0.111839376848000 0.111839376848000
0.09286412512219 0.113518076463418 0.113518076463418 0.113518076463418
0.09384164222874 0.115218054844324 0.115218054844324 0.115218054844324
0.09481915933529 0.116889181926092 0.116889181926092 0.116889181926092
0.09579667644184 0.118475490739613 0.118475490739613 0.118475490739613
0.09677419354839 0.119949063457576 0.119949063457576 0.119949063457576
0.09775171065494 0.121352536734754 0.121352536734754 0.121352536734754
0.09872922776149 0.122702940658470 0.122702940658470 0.122702940658470
0.09970674486804 0.124018487027030 0.124018487027030 0.124018487027030
0.10068426197458 0.125319758443823 0.125319758443823 0.125319758443823
0.10166177908113 0.126629876985913 0.126629876985913 0.126629876985913
0.10263929618768 0.127974591524815 0.127974591524815 0.127974591524815
0.10361681329423 0.129354184674844 0.129354184674844 0.129354184674844
0.10459433040078 0.130753083764655 0.130753083764655 0.130753083764655
0.10557184750733 0.132167564076979 0.132167564076979 0.132167564076979
0.10654936461388 0.133593485856485 0.133593485856485 0.133593485856485
0.10752688172043 0.135026266948147 0.135026266948147 0.135026266948147
0.10850439882698 0.136460854032701 0.136460854032701 0.136460854032701
0.10948191593353 0.137891692398191 0.137891692398191 0.137891692398191
0.11045943304008 0.139312694184212 0.139312694184212 0.139312694184212
0.11143695014663 0.140717205033040 0.140717205033040 0.140717205033040
0.11241446725318 0.142101876044068 0.142101876044068 0.142101876044068
0.11339198435973 0.143490375135301 0.143490375135301 0.143490375135301
0.11436950146628 0.144874890121511 0.144874890121511 0.144874890121511
0.11534701857283 0.146237721088549 0.146237721088549 0.146237721088549
0.11632453567937 0.147559406172258 0.147559406172258 0.147559406172258
0.11730205278592 0.148818611034955 0.148818611034955 0.148818611034955
0.11827956989247 0.149992012886320 0.149992012886320 0.149992012886320
0.11925708699902 0.151049612995491 0.151049612995491 0.151049612995491
0.12023460410557 0.151925209387950 0.151925209387950 0.151925209387950
0.12121212121212 0.152631485063445 0.152631485063445 0.152631485063445
0.12218963831867 0.153206529076296 0.153206529076296 0.153206529076296
0.12316715542522 0.153692857996875 0.153692857996875 0.153692857996875
0.12414467253177 0.154137700538880 0.154137700538880 0.154137700538880
0.12512218963832 0.154593296193971 0.154593296193971 0.154593296193971
0.12609970674487 0.155117208458402 0.155117208458402 0.155117208458402
0.12707722385142 0.155772653258007 0.155772653258007 0.155772653258007
0.12805474095797 0.156628843200406 0.156628843200406 0.156628843200406
0.12903225806452 0.157761348306498 0.157761348306498 0.157761348306498
0.13000977517107 0.159252473897337 0.159252473897337 0.159252473897337
0.13098729227761 0.161456358469793 0.161456358469793 0.161456358469793
0.13196480938416 0.164727896258038 0.164727896258038 0.164727896258038
0.13294232649071 0.167906899119594 0.167906899119594 0.167906899119594
0.13391984359726 0.169925168998649 0.169925168998649 0.169925168998649
0.13489736070381 0.171434552782298 0.171434552782298 0.171434552782298
0.13587487781036 0.172631955720811 0.172631955720811 0.172631955720811
0.13685239491691 0.173563067158173 0.173563067158173 0.173563067158173
0.13782991202346 0.174278843847860 0.174278843847860 0.174278843847860
0.13880742913001 0.174835834879567 0.174835834879567 0.174835834879567
0.13978494623656 0.175296521959625 0.175296521959625 0.175296521959625
0.14076246334311 0.175729675663622 0.175729675663622 0.175729675663622
0.14173998044966 0.176210728301976 0.176210728301976 0.176210728301976
0.14271749755621 0.176822164062346 0.176822164062346 0.176822164062346
0.14369501466276 0.177653927116535 0.177653927116535 0.177653927116535
0.14467253176931 0.178741303786616 0.178741303786616 0.178741303786616
0.14565004887586 0.179871105792592 0.179871105792592 0.179871105792592
0.14662756598240 0.181029766823752 0.181029766823752 0.181029766823752
0.14760508308895 0.182236562062990 0.182236562062990 0.182236562062990
0.14858260019550 0.183512458401425 0.183512458401425 0.183512458401425
0.14956011730205 0.184880209545802 0.184880209545802 0.184880209545802
0.15053763440860 0.186364455393522 0.186364455393522 0.186364455393522
0.15151515151515 0.187991825841350 0.187991825841350 0.187991825841350
0.15249266862170 0.189791049199768 0.189791049199768 0.189791049199768
0.15347018572825 0.191793097097702 0.191793097097702 0.191793097097702
0.15444770283480 0.194454946560763 0.194454946560763 0.194454946560763
0.15542521994135 0.197610671953971 0.197610671953971 0.197610671953971
0.15640273704790 0.200324127559723 0.200324127559723 0.200324127559723
0.15738025415445 0.201985478487068 0.201985478487068 0.201985478487068
0.15835777126100 0.203250537548303 0.203250537548303 0.203250537548303
0.15933528836755 0.204223064761122 0.204223064761122 0.204223064761122
0.16031280547410 0.204952421878505 0.204952421878505 0.204952421878505
0.16129032258065 0.205492981721070 0.205492981721070 0.205492981721070
0.16226783968719 0.205904412978099 0.205904412978099 0.205904412978099
0.16324535679374 0.206251977625362 0.206251977625362 0.206251977625362
0.16422287390029 0.206606841442113 0.206606841442113 0.206606841442113
0.16520039100684 0.207046398126282 0.207046398126282 0.207046398126282
0.16617790811339 0.207654607524161 0.207654607524161 0.207654607524161
0.16715542521994 0.208522348508610 0.208522348508610 0.208522348508610
0.16813294232649 0.209747787058198 0.209747787058198 0.209747787058198
0.16911045943304 0.211654717476705 0.211654717476705 0.211654717476705
0.17008797653959 0.214366254500255 0.214366254500255 0.214366254500255
0.17106549364614 0.217182408176799 0.217182408176799 0.217182408176799
0.17204301075269 0.219328291010230 0.219328291010230 0.219328291010230
0.17302052785924 0.220817417752134 0.220817417752134 0.220817417752134
0.17399804496579 0.222046487280992 0.222046487280992 0.222046487280992
0.17497556207234 0.223051730522628 0.223051730522628 0.223051730522628
0.17595307917889 0.223872977069842 0.223872977069842 0.223872977069842
0.17693059628544 0.224553853116161 0.224553853116161 0.224553853116161
0.17790811339198 0.225141987897541 0.225141987897541 0.225141987897541
0.17888563049853 0.225689228958923 0.225689228958923 0.225689228958923
0.17986314760508 0.226251866573356 0.226251866573356 0.226251866573356
0.18084066471163 0.226890867652436 0.226890867652436 0.226890867652436
0.18181818181818 0.227672119498208 0.227672119498208 0.227672119498208
0.18279569892473 0.228655256730476 0.228655256730476 0.228655256730476
0.18377321603128 0.229734678298127 0.229734678298127 0.229734678298127
0.18475073313783 0.230862928206704 0.230862928206704 0.230862928206704
0.18572825024438 0.232036595148063 0.232036595148063 0.232036595148063
0.18670576735093 0.233251911838631 0.233251911838631 0.233251911838631
0.18768328445748 0.234504735714913 0.234504735714913 0.234504735714913
0.18866080156403 0.235790528814006 0.235790528814006 0.235790528814006
0.18963831867058 0.237104336809249 0.237104336809249 0.237104336809249
0.19061583577713 0.238440767170171 0.238440767170171 0.238440767170171
0.19159335288368 0.239793966414781 0.239793966414781 0.239793966414781
0.19257086999022 0.241157596421355 0.241157596421355 0.241157596421355
0.19354838709677 0.242531896988180 0.242531896988180 0.242531896988180
0.19452590420332 0.243975183317147 0.243975183317147 0.243975183317147
0.19550342130987 0.245474397630772 0.245474397630772 0.245474397630772
0.19648093841642 0.246992565285131 0.246992565285131 0.246992565285131
0.19745845552297 0.248489748616325 0.248489748616325 0.248489748616325
0.19843597262952 0.249922897988654 0.249922897988654 0.249922897988654
0.19941348973607 0.251245742299970 0.251245742299970 0.251245742299970
0.20039100684262 0.252432985746397 0.252432985746397 0.252432985746397
0.20136852394917 0.253510218397344 0.253510218397344 0.253510218397344
0.20234604105572 0.254510441751217 0.254510441751217 0.254510441751217
0.20332355816227 0.255469416663964 0.255469416663964 0.255469416663964
0.20430107526882 0.256425802698165 0.256425802698165 0.256425802698165
0.20527859237537 0.257421303108368 0.257421303108368 0.257421303108368
0.20625610948192 0.258500815662880 0.258500815662880 0.258500815662880
0.20723362658847 0.259712589508930 0.259712589508930 0.259712589508930
0.20821114369501 0.261120127935576 0.261120127935576 0.261120127935576
0.20918866080156 0.262765624361767 0.262765624361767 0.262765624361767
0.21016617790811 0.264554287886967 0.264554287886967 0.264554287886967
0.21114369501466 0.266372092817386 0.266372092817386 0.266372092817386
0.21212121212121 0.268096209933204 0.268096209933204 0.268096209933204
0.21309872922776 0.269596613453043 0.269596613453043 0.269596613453043
0.21407624633431 0.270897623309563 0.270897623309563 0.270897623309563
0.21505376344086 0.272079865628211 0.272079865628211 0.272079865628211
0.21603128054741 0.273169842015934 0.273169842015934 0.273169842015934
0.21700879765396 0.274196254064195 0.274196254064195 0.274196254064195
0.21798631476051 0.275190112246592 0.275190112246592 0.275190112246592
0.21896383186706 0.276184849135751 0.276184849135751 0.276184849135751
0.21994134897361 0.277216437090344 0.277216437090344 0.277216437090344
0.22091886608016 0.278323510567988 0.278323510567988 0.278323510567988
0.22189638318671 0.279520242231348 0.279520242231348 0.279520242231348
0.22287390029326 0.280768445488174 0.280768445488174 0.280768445488174
0.22385141739980 0.282057580126918 0.282057580126918 0.282057580126918
0.22482893450635 0.283377370961080 0.283377370961080 0.283377370961080
0.22580645161290 0.284716739311935 0.284716739311935 0.284716739311935
0.22678396871945 0.286063764381916 0.286063764381916 0.286063764381916
0.22776148582600 0.287405643124825 0.287405643124825 0.287405643124825
0.22873900293255 0.288728648561013 0.288728648561013 0.288728648561013
0.22971652003910 0.290018086484150 0.290018086484150 0.290018086484150
0.23069403714565 0.291258250504385 0.291258250504385 0.291258250504385
0.23167155425220 0.292430414005036 0.292430414005036 0.292430414005036
0.23264907135875 0.293446405359517 0.293446405359517 0.293446405359517
0.23362658846530 0.294304216041585 0.294304216041585 0.294304216041585
0.23460410557185 0.295059590198072 0.295059590198072 0.295059590198072
0.23558162267840 0.295772531935983 0.295772531935983 0.295772531935983
0.23655913978495 0.296507507084686 0.296507507084686 0.296507507084686
0.23753665689150 0.297333652710758 0.297333652710758 0.297333652710758
0.23851417399804 0.298324994649788 0.298324994649788 0.298324994649788
0.23949169110459 0.299560673327759 0.299560673327759 0.299560673327759
0.24046920821114 0.301125178153222 0.301125178153222 0.301125178153222
0.24144672531769 0.303379531279501 0.303379531279501 0.303379531279501
0.24242424242424 0.306354926490702 0.306354926490702 0.306354926490702
0.24340175953079 0.309227736641724 0.309227736641724 0.309227736641724
0.24437927663734 0.311222757841440 0.311222757841440 0.311222757841440
0.24535679374389 0.312730038250628 0.312730038250628 0.312730038250628
0.24633431085044 0.313963578791112 0.313963578791112 0.313963578791112
0.24731182795699 0.314969795577923 0.314969795577923 0.314969795577923
0.24828934506354 0.315798793291532 0.315798793291532 0.315798793291532
0.24926686217009 0.316504539284558 0.316504539284558 0.316504539284558
0.25024437927664 0.317145044312926 0.317145044312926 0.317145044312926
0.25122189638319 0.317782550114981 0.317782550114981 0.317782550114981
0.25219941348974 0.318483724068999 0.318483724068999 0.318483724068999
0.25317693059629 0.319319861166799 0.319319861166799 0.319319861166799
0.25415444770283 0.320311712268710 0.320311712268710 0.320311712268710
0.25513196480938 0.321326458942647 0.321326458942647 0.321326458942647
0.25610948191593 0.322353802768603 0.322353802768603 0.322353802768603
0.25708699902248 0.323395110896339 0.323395110896339 0.323395110896339
0.25806451612903 0.324451836044815 0.324451836044815 0.324451836044815
0.25904203323558 0.325525520289462 0.325525520289462 0.325525520289462
0.26001955034213 0.326617798989238 0.326617798989238 0.326617798989238
0.26099706744868 0.327730404858105 0.327730404858105 0.327730404858105
0.26197458455523 0.328865249188192 0.328865249188192 0.328865249188192
0.26295210166178 0.330034931352258 0.330034931352258 0.330034931352258
0.26392961876833 0.331241046450054 0.331241046450054 0.331241046450054
0.26490713587488 0.332473653067213 0.332473653067213 0.332473653067213
0.26588465298143 0.333722094084048 0.333722094084048 0.333722094084048
0.26686217008798 0.334974964378374 0.334974964378374 0.334974964378374
0.26783968719453 0.336220077334771 0.336220077334771 0.336220077334771
0.26881720430108 0.337444430120899 0.337444430120899 0.337444430120899
0.26979472140762 0.338641197779673 0.338641197779673 0.338641197779673
0.27077223851417 0.339829507289177 0.339829507289177 0.339829507289177
0.27174975562072 0.341012925514422 0.341012925514422 0.341012925514422
0.27272727272727 0.342192927389015 0.342192927389015 0.342192927389015
0.27370478983382 0.343371105215590 0.343371105215590 0.343371105215590
0.27468230694037 0.344549174125680 0.344549174125680 0.344549174125680
0.27565982404692 0.345728977743359 0.345728977743359 0.345728977743359
0.27663734115347 0.346912494059397 0.346912494059397 0.346912494059397
0.27761485826002 0.348101841522905 0.348101841522905 0.348101841522905
0.27859237536657 0.349299285357571 0.349299285357571 0.349299285357571
0.27956989247312 0.350507244109987 0.350507244109987 0.350507244109987
0.28054740957967 0.351728326436915 0.351728326436915 0.351728326436915
0.28152492668622 0.352966531990386 0.352966531990386 0.352966531990386
0.28250244379277 0.354218308567752 0.354218308567752 0.354218308567752
0.28347996089932 0.355476195304999 0.355476195304999 0.355476195304999
0.28445747800587 0.356732232246514 0.356732232246514 0.356732232246514
0.28543499511241 0.357977938637011 0.357977938637011 0.357977938637011
0.28641251221896 0.359204290431115 0.359204290431115 0.359204290431115
0.28739002932551 0.360401696995279 0.360401696995279 0.360401696995279
0.28836754643206 0.361563635958946 0.361563635958946 0.361563635958946
0.28934506353861 0.362697007102503 0.362697007102503 0.362697007102503
0.29032258064516 0.363807164816089 0.363807164816089 0.363807164816089
0.29130009775171 0.364899487138948 0.364899487138948 0.364899487138948
0.29227761485826 0.365979744197661 0.365979744197661 0.365979744197661
0.29325513196481 0.367054115649663 0.367054115649663 0.367054115649663
0.29423264907136 0.368129208759589 0.368129208759589 0.368129208759589
0.29521016617791 0.369212077128878 0.369212077128878 0.369212077128878
0.29618768328446 0.370308415271802 0.370308415271802 0.370308415271802
0.29716520039101 0.371407186137478 0.371407186137478 0.371407186137478
0.29814271749756 0.372505270268338 0.372505270268338 0.372505270268338
0.29912023460411 0.373603037740957 0.373603037740957 0.373603037740957
0.30009775171065 0.374700892825987 0.374700892825987 0.374700892825987
0.30107526881720 0.375799275621359 0.375799275621359 0.375799275621359
0.30205278592375 0.376898663746472 0.376898663746472 0.376898663746472
0.30303030303030 0.377999574099177 0.377999574099177 0.377999574099177
0.30400782013685 0.379102499332334 0.379102499332334 0.379102499332334
0.30498533724340 0.380200472974499 0.380200472974499 0.380200472974499
0.30596285434995 0.381291360077367 0.381291360077367 0.381291360077367
0.30694037145650 0.382379459333941 0.382379459333941 0.382379459333941
0.30791788856305 0.383469362226303 0.383469362226303 0.383469362226303
0.30889540566960 0.384565965682432 0.384565965682432 0.384565965682432
0.30987292277615 0.385674485183762 0.385674485183762 0.385674485183762
0.31085043988270 0.386800468337833 0.386800468337833 0.386800468337833
0.31182795698925 0.387949808930989 0.387949808930989 0.387949808930989
0.31280547409580 0.389132078537275 0.389132078537275 0.389132078537275
0.31378299120235 0.390352003636404 0.390352003636404 0.390352003636404
0.31476050830890 0.391602663602878 0.391602663602878 0.391602663602878
0.31573802541544 0.392876495778935 0.392876495778935 0.392876495778935
0.31671554252199 0.394165430486531 0.394165430486531 0.394165430486531
0.31769305962854 0.395460869451518 0.395460869451518 0.395460869451518
0.31867057673509 0.396753663467890 0.396753663467890 0.396753663467890
0.31964809384164 0.398034089277991 0.398034089277991 0.398034089277991
0.32062561094819 0.399291825643835 0.399291825643835 0.399291825643835
0.32160312805474 0.400515928583864 0.400515928583864 0.400515928583864
0.32258064516129 0.401694805748824 0.401694805748824 0.401694805748824
0.32355816226784 0.402815508605584 0.402815508605584 0.402815508605584
0.32453567937439 0.403878693523184 0.403878693523184 0.403878693523184
0.32551319648094 0.404896457461666 0.404896457461666 0.404896457461666
0.32649071358749 0.405881801787227 0.405881801787227 0.405881801787227
